src/assets/images/svg/languages/logo-javascript.svg

<svg width="31" height="32" viewBox="0 0 31 32" fill="none" xmlns="http://www.w3.org/2000/svg">
<g clip-path="url(#clip0_98_112)">
<path d="M0 0.5H31V31.5H0V0.5Z" fill="#009DF8"/>
<path d="M28.4628 24.1065C28.2359 22.6921 27.3136 21.5045 24.582 20.3966C23.6331 19.9604 22.5752 19.6481 22.2599 18.9291C22.1479 18.5106 22.1332 18.2749 22.2039 18.0215C22.4072 17.1993 23.3885 16.9429 24.1665 17.1787C24.6674 17.3467 25.1418 17.7327 25.4277 18.3486C26.7655 17.4822 26.7626 17.4881 27.6967 16.8929C27.3549 16.3625 27.1722 16.1179 26.9482 15.891C26.1437 14.9922 25.0475 14.5296 23.2942 14.5649C22.9907 14.6032 22.6843 14.6445 22.3807 14.6828C21.5056 14.9038 20.6716 15.3635 20.1824 15.9794C18.7149 17.6443 19.1334 20.5586 20.9191 21.758C22.6783 23.0781 25.2627 23.3787 25.5927 24.6134C25.9139 26.1251 24.4818 26.6142 23.0585 26.4404C22.0094 26.2224 21.426 25.689 20.7954 24.7195C19.6344 25.3914 19.6344 25.3914 18.4409 26.078C18.7238 26.6968 19.0214 26.9767 19.4959 27.513C21.7413 29.7909 27.3608 29.6789 28.3686 26.2312C28.4098 26.1133 28.6809 25.3236 28.4628 24.1065ZM16.8526 14.7476H13.953C13.953 17.2524 13.9412 19.7394 13.9412 22.2442C13.9412 23.8384 14.0237 25.3 13.7644 25.7479C13.3401 26.6289 12.2409 26.5199 11.74 26.349C11.2302 26.0985 10.9709 25.742 10.6703 25.2381C10.5878 25.0937 10.5259 24.9817 10.5052 24.9729C9.71848 25.4532 8.93461 25.9365 8.14783 26.4168C8.53978 27.2213 9.11731 27.9197 9.85695 28.3734C10.962 29.0365 12.4472 29.2398 14.0001 28.8832C15.0109 28.5885 15.8831 27.9786 16.3398 27.0504C16.9999 25.8333 16.8585 24.36 16.8526 22.7304C16.8673 20.0724 16.8526 17.4144 16.8526 14.7476Z" fill="#EFFBFF"/>
</g>
<defs>
<clipPath id="clip0_98_112">
<rect width="31" height="31" fill="white" transform="translate(0 0.5)"/>
</clipPath>
</defs>
</svg>

<svg xmlns="http://www.w3.org/2000/svg" width="31" height="32" fill="none"><g clip-path="url(#a)"><path fill="#009DF8" d="M0 .5h31v31H0V.5Z"/><path fill="#EFFBFF" d="M28.463 24.107c-.227-1.415-1.15-2.602-3.881-3.71-.949-.437-2.007-.749-2.322-1.468-.112-.418-.127-.654-.056-.907.203-.823 1.184-1.08 1.962-.843.501.168.976.554 1.262 1.17 1.337-.867 1.335-.86 2.269-1.456-.342-.53-.525-.775-.749-1.002-.804-.899-1.9-1.361-3.654-1.326-.303.038-.61.08-.913.118-.875.22-1.71.68-2.199 1.296-1.467 1.665-1.049 4.58.737 5.779 1.76 1.32 4.344 1.62 4.674 2.855.32 1.512-1.111 2.001-2.535 1.827-1.049-.218-1.632-.751-2.263-1.72-1.16.671-1.16.671-2.354 1.358.283.619.58.899 1.055 1.435 2.245 2.278 7.865 2.166 8.873-1.282.04-.118.312-.907.094-2.125Zm-11.61-9.36h-2.9c0 2.505-.012 4.992-.012 7.497 0 1.594.083 3.056-.177 3.504-.424.88-1.523.772-2.024.601-.51-.25-.77-.607-1.07-1.11-.082-.145-.144-.257-.165-.266-.787.48-1.57.963-2.357 1.444.392.804.97 1.503 1.709 1.956 1.105.663 2.59.867 4.143.51 1.01-.294 1.883-.904 2.34-1.833.66-1.217.518-2.69.513-4.32.014-2.658 0-5.316 0-7.982Z"/></g><defs><clipPath id="a"><path fill="#fff" d="M0 .5h31v31H0z"/></clipPath></defs></svg>
